Sites/Hud/app/img/dest/advantages/image(2).svg

<svg width="128" height="128" viewBox="0 0 128 128" fill="none" xmlns="http://www.w3.org/2000/svg">
<circle cx="64" cy="64" r="63" stroke="white" stroke-width="2"/>
<path d="M60.0354 74.9311V52.4303M68.9921 69.0328C68.9921 69.0328 69.0887 42.1952 68.9921 34.0072C68.8954 25.8193 50.9739 26.1779 51.0059 34.0072C51.0379 41.8366 51.0786 68.96 51.0786 68.96M73.5068 39.0317H84.7936M75.036 45.8038H82.7547M73.5068 52.4303H79.1502H84.7936M75.036 59.5664H82.7547M73.5068 66.7754H84.7936" stroke="white" stroke-width="3"/>
<circle cx="59.9626" cy="83.7418" r="7.96637" stroke="white" stroke-width="3"/>
<path d="M68.7007 68.5229C86.6139 83.3779 72.1231 101 60.0352 101C47.9474 101 33.5295 82.5769 51.3698 68.5229" stroke="white" stroke-width="3"/>
</svg>

<svg width="128" height="128" fill="none" xmlns="http://www.w3.org/2000/svg"><circle cx="64" cy="64" r="63" stroke="#fff" stroke-width="2"/><path d="M60.035 74.931v-22.5m8.957 16.602s.097-26.838 0-35.026c-.097-8.188-18.018-7.83-17.986 0 .032 7.83.073 34.953.073 34.953m22.428-29.928h11.287m-9.758 6.772h7.719m-9.248 6.626h11.287m-9.758 7.136h7.719m-9.248 7.21h11.287" stroke="#fff" stroke-width="3"/><circle cx="59.963" cy="83.742" r="7.966" stroke="#fff" stroke-width="3"/><path d="M68.7 68.523C86.615 83.378 72.124 101 60.036 101S33.53 82.577 51.37 68.523" stroke="#fff" stroke-width="3"/></svg>
